packages/elvis-assets-icons/icons/svg/src/filter.svg

<svg width="24" height="24" viewBox="0 0 24 24" fill="none" xmlns="http://www.w3.org/2000/svg">
<g clip-path="url(#clip0)">
<path d="M10.4952 24C9.66651 24 8.99117 23.3021 8.99117 22.4446V12.8228C4.04833 11.4966 0.370006 6.95165 0.00327556 1.66325C0.00127157 1.62489 -0.000732422 1.59067 -0.000732422 1.55645C-0.000732422 1.14167 0.155579 0.750745 0.439143 0.456254C0.722708 0.1628 1.10046 0 1.50226 0H22.4961C22.5291 0 22.5632 0.00103696 22.5963 0.00311084C22.995 0.0300713 23.3608 0.217758 23.6253 0.529877C23.8898 0.841996 24.0221 1.24226 23.996 1.65807C23.996 1.66118 23.996 1.66533 23.995 1.66844C23.6253 6.9558 19.946 11.4997 15.0031 12.8228V19.8522C15.0041 20.3158 14.8057 20.7513 14.4611 21.0478L11.4561 23.6391C11.1865 23.8714 10.8459 24 10.4952 24ZM1.50326 1.55541C1.85095 6.40726 5.29782 10.471 9.89296 11.4426C10.2417 11.5163 10.4942 11.8367 10.4942 12.2048V22.4446L13.5001 19.8522V12.2048C13.5001 11.8367 13.7526 11.5163 14.1013 11.4426C18.7065 10.471 22.1584 6.40415 22.4961 1.55334L1.50326 1.55541Z" fill="black"/>
</g>
<defs>
<clipPath id="clip0">
<path d="M-0.000732422 0H23.9993V24H-0.000732422V0Z" fill="white"/>
</clipPath>
</defs>
</svg>

<svg width="24" height="24" fill="none" xmlns="http://www.w3.org/2000/svg"><g clip-path="url(#clip0)"><path d="M10.495 24c-.828 0-1.504-.698-1.504-1.555v-9.622C4.048 11.497.37 6.952.003 1.663.001 1.625 0 1.591 0 1.556c0-.414.157-.805.44-1.1A1.47 1.47 0 011.502 0h20.994a1.473 1.473 0 011.13.53c.264.312.396.712.37 1.128l-.001.01c-.37 5.288-4.049 9.832-8.992 11.155v7.03c.001.463-.197.898-.542 1.195l-3.005 2.591c-.27.232-.61.361-.96.361zM1.503 1.555c.348 4.852 3.795 8.916 8.39 9.888a.774.774 0 01.601.762v10.24l3.006-2.593v-7.647c0-.368.253-.689.601-.762 4.605-.972 8.057-5.039 8.395-9.89l-20.993.002z" fill="#000"/></g><defs><clipPath id="clip0"><path d="M0 0h24v24H0V0z" fill="#fff"/></clipPath></defs></svg>
